X: 150
T: No_232_Song_Concerning_the_Removal_of_the_Seminole_to_Oklahoma_(a).krn
N: Derived from No_232_Song_Concerning_the_Removal_of_the_Seminole_to_Oklahoma_(a).krn
%%abc-version 2.0
%%abcx-abcm2ps-target-version 5.9.1 (29 Sep 2008)
%%abc-creator hum2abc beta
%%abcx-conversion-date 2019/03/15 08:38:45
%%humdrum-veritas 3904177324
%%humdrum-veritas-data 1824834444
%%linebreak <none>
%%barnumbers 0
L: 1/8
M: 3/4
K: B clef=bass
[K:clef=bass][M:3/4]z3GF2 ]|:  
F3E CB, | 
C3FE2 | 
C3B,B,2 | 
C3C B,F, | 
B,3G,G,2 | 
G,4z G ||  
[M:2/4]F2(D/C/)B, ||  
[M:3/4]C3GF2 ]|:  
F3G FE ||  
[M:4/4]F4-F3/F/E2 ||  
[M:3/4]C3B,B,2 | 
B,4z2 | 
G,3F, G,F, | 
G,3G,B,2 | 
B,2D2CB, | 
C3E ED | 
C4z2 ||  
[M:4/4]C4-C3/C/B,2 ||  
[M:3/4]B,3G,G,2 | 
G,2z GF2 | 
F3D CB, | 
C3CB,2 ||  
[M:2/4]B,2z2 | 
z3/ G,/ G,3/G,/ | 
B,3/B,/ B,3/B,/ | 
B,3/F/ FD ||  
[M:3/4]C3B,B,2 ||  
[M:2/4]C3C | 
B,2z2 | 
B,G,G,2 ||  
[M:3/4]G,2z GF2 | 
F3G FE ||  
[M:4/4]F2z2FE3 ||  
[M:3/4]C3B, B,G, | 
B,4z2 | 
G,3G,G,2 | 
G,4B,3/B,/ | 
B,3F FD | 
C3C B,G, | 
B,4z G, | 
G,4F2 :|]  
G,4z2 |]  



